images/people/people-02.svg

<?xml version="1.0" standalone="no"?><!DOCTYPE svg PUBLIC "-//W3C//DTD SVG 1.1//EN" "http://www.w3.org/Graphics/SVG/1.1/DTD/svg11.dtd"><svg width="120px" height="192px" version="1.1" xmlns="http://www.w3.org/2000/svg" xmlns:xlink="http://www.w3.org/1999/xlink" xml:space="preserve" style="fill-rule:evenodd;clip-rule:evenodd;stroke-linejoin:round;stroke-miterlimit:1.41421;"><g><g id="people-02" transform="matrix(1,0,0,1,-1385,-48)"><g transform="matrix(1,0,0,1,0,-12)"><path d="M1452.48,231.02l0.943,6.871l-6.697,-0.172l-0.516,-7.384l6.27,0.685Z" style="fill:#2a2b2a;fill-rule:nonzero;"/></g><g transform="matrix(1,0,0,1,0,-12)"><path d="M1440.25,249.311l0.773,2.189l5.28,0l1.353,-9.981l-6.029,-1.266l-1.377,9.058Z" style="fill:#2a2b2a;fill-rule:nonzero;"/></g><g transform="matrix(1,0,0,1,0,-12)"><path d="M1438.32,125.405l2.834,-1.889l2.061,-5.839l4.757,1.357l1.51,3.709l3.262,1.632l-7.103,11.462l-7.321,-10.432Z" style="fill:#ceab97;fill-rule:nonzero;"/></g><g transform="matrix(1,0,0,1,0,-12)"><path d="M1443.11,121.839l4.286,0l4.616,-5.935l-0.824,-12.694l-8.234,-1.375l-5.116,2.034l0.164,12.035l5.108,5.935Z" style="fill:#e1c5b5;fill-rule:nonzero;"/></g><g transform="matrix(1,0,0,1,0,-12)"><path d="M1440.46,102.05l0.43,-1.718l13.816,1.337l1.15,9.826l-4.277,0.258l-3.348,-6.827l-6.224,-0.901l-1.547,-1.975Z" style="fill:#543e36;fill-rule:nonzero;"/></g><g transform="matrix(1,0,0,1,0,-12)"><path d="M1451.5,108.456l2.822,0.047l0.223,4.916l-2.879,-0.15l-0.166,-4.813Z" style="fill:#e1c5b5;fill-rule:nonzero;"/></g><g transform="matrix(1,0,0,1,0,-12)"><path d="M1442.05,104.024l-3.479,1.417l-0.641,6.182l-5.056,0.644l0.582,-8.142l7.5,-3.75l1.094,3.649Z" style="fill:#543e36;fill-rule:nonzero;"/></g><g transform="matrix(1,0,0,1,0,-12)"><path d="M1438.21,109.125l-2.848,0.775l0.223,4.122l2.518,0.098l0.107,-4.995Z" style="fill:#e1c5b5;fill-rule:nonzero;"/></g><g transform="matrix(1,0,0,1,0,-12)"><path d="M1457.15,163.531l-4.661,67.489l-5.41,0l-1.201,-57.358l2.794,26.46l-1.078,41.46l-5.923,-1.288l-3.094,-39.927l-4.033,-36.322l22.606,-0.514Z" style="fill:#5c5e5f;fill-rule:nonzero;"/></g><g transform="matrix(1,0,0,1,0,-12)"><path d="M1446.42,173.562l2.72,28.607l-1.282,28.86l5.317,-10.071l2.576,-38.19l-9.331,-9.206Z" style="fill:#171817;fill-opacity:0.5;fill-rule:nonzero;"/></g><g transform="matrix(1,0,0,1,0,-12)"><path d="M1427.23,159.49l-2.349,5.768l0.451,7.992l2.654,-1.018l0.541,-6.748l-0.22,2.034l2.4,0.107l-0.872,-5.549l-2.605,-2.586Z" style="fill:#e1c5b5;fill-rule:nonzero;"/></g><g transform="matrix(1,0,0,1,0,-12)"><path d="M1463.34,159.768l1.776,4.479l-0.157,7.378l-2.899,-0.381l-0.588,-6.746l0.232,2.033l-2.494,0.344l0.837,-5.593l3.293,-1.514Z" style="fill:#e1c5b5;fill-rule:nonzero;"/></g><g transform="matrix(1,0,0,1,0,-12)"><path d="M1452.87,124.246l6.225,2.705l4.459,33.659l-3.606,0.601l-4.115,-29.624l1.373,31.942l-22.668,0.516l1.889,-29.709l-6.526,27.819l-3.306,-1.459l5.881,-31.856l5.839,-3.565l8.371,8.502l6.184,-9.531Z" style="fill:#e4e2dc;fill-rule:nonzero;"/></g></g></g></svg>

<?xml version="1.0" encoding="UTF-8" standalone="no"?>
<!DOCTYPE svg PUBLIC "-//W3C//DTD SVG 1.1//EN" "http://www.w3.org/Graphics/SVG/1.1/DTD/svg11.dtd">
<svg width="100%" height="100%" viewBox="0 0 140 220" version="1.1" xmlns="http://www.w3.org/2000/svg" xmlns:xlink="http://www.w3.org/1999/xlink" xml:space="preserve" xmlns:serif="http://www.serif.com/" style="fill-rule:evenodd;clip-rule:evenodd;stroke-linejoin:round;stroke-miterlimit:2;">
    <g id="people-02" transform="matrix(1.27,0,0,1.27,-1765.15,-84.8)">
        <g transform="matrix(1,0,0,1,0,-12)">
            <path d="M1452.48,231.021L1453.43,237.892L1446.73,237.72L1446.21,230.336L1452.48,231.021Z" style="fill:rgb(42,43,42);fill-rule:nonzero;"/>
        </g>
        <g transform="matrix(1,0,0,1,0,-12)">
            <path d="M1440.25,249.311L1441.02,251.5L1446.3,251.5L1447.65,241.519L1441.62,240.253L1440.25,249.311Z" style="fill:rgb(42,43,42);fill-rule:nonzero;"/>
        </g>
        <g transform="matrix(1,0,0,1,0,-12)">
            <path d="M1438.32,125.405L1441.15,123.516L1443.21,117.677L1447.97,119.034L1449.48,122.743L1452.74,124.375L1445.64,135.837L1438.32,125.405Z" style="fill:rgb(206,171,151);fill-rule:nonzero;"/>
        </g>
        <g transform="matrix(1,0,0,1,0,-12)">
            <path d="M1443.11,121.839L1447.39,121.839L1452.01,115.904L1451.19,103.21L1442.95,101.835L1437.84,103.869L1438,115.904L1443.11,121.839Z" style="fill:rgb(225,197,181);fill-rule:nonzero;"/>
        </g>
        <g transform="matrix(1,0,0,1,0,-12)">
            <path d="M1440.46,102.05L1440.89,100.332L1454.71,101.669L1455.86,111.495L1451.58,111.753L1448.23,104.926L1442.01,104.025L1440.46,102.05Z" style="fill:rgb(84,62,54);fill-rule:nonzero;"/>
        </g>
        <g transform="matrix(1,0,0,1,0,-12)">
            <path d="M1451.5,108.456L1454.32,108.503L1454.54,113.419L1451.66,113.269L1451.5,108.456Z" style="fill:rgb(225,197,181);fill-rule:nonzero;"/>
        </g>
        <g transform="matrix(1,0,0,1,0,-12)">
            <path d="M1442.05,104.024L1438.57,105.441L1437.93,111.623L1432.88,112.267L1433.46,104.125L1440.96,100.375L1442.05,104.024Z" style="fill:rgb(84,62,54);fill-rule:nonzero;"/>
        </g>
        <g transform="matrix(1,0,0,1,0,-12)">
            <path d="M1438.21,109.125L1435.36,109.9L1435.58,114.022L1438.1,114.12L1438.21,109.125Z" style="fill:rgb(225,197,181);fill-rule:nonzero;"/>
        </g>
        <g transform="matrix(1,0,0,1,0,-12)">
            <path d="M1457.15,163.531L1452.49,231.02L1447.08,231.02L1445.87,173.662L1448.67,200.122L1447.59,241.582L1441.67,240.294L1438.57,200.367L1434.54,164.045L1457.15,163.531Z" style="fill:rgb(92,94,95);fill-rule:nonzero;"/>
        </g>
        <g transform="matrix(1,0,0,1,0,-12)">
            <path d="M1446.42,173.563L1449.14,202.17L1447.86,231.029L1453.17,220.959L1455.75,182.768L1446.42,173.563Z" style="fill:rgb(23,24,23);fill-opacity:0.5;fill-rule:nonzero;"/>
        </g>
        <g transform="matrix(1,0,0,1,0,-12)">
            <path d="M1427.23,159.49L1424.88,165.258L1425.33,173.25L1427.99,172.232L1428.53,165.484L1428.31,167.518L1430.71,167.625L1429.84,162.076L1427.23,159.49Z" style="fill:rgb(225,197,181);fill-rule:nonzero;"/>
        </g>
        <g transform="matrix(1,0,0,1,0,-12)">
            <path d="M1463.34,159.768L1465.11,164.247L1464.96,171.625L1462.06,171.244L1461.47,164.498L1461.7,166.531L1459.21,166.875L1460.05,161.282L1463.34,159.768Z" style="fill:rgb(225,197,181);fill-rule:nonzero;"/>
        </g>
        <g transform="matrix(1,0,0,1,0,-12)">
            <path d="M1452.87,124.246L1459.1,126.951L1463.56,160.61L1459.95,161.211L1455.83,131.587L1457.21,163.529L1434.54,164.045L1436.43,134.336L1429.9,162.155L1426.6,160.696L1432.48,128.84L1438.32,125.275L1446.69,133.777L1452.87,124.246Z" style="fill:rgb(228,226,220);fill-rule:nonzero;"/>
        </g>
    </g>
</svg>
